resources/icons/16px/cargo-ship.svg

<svg width="16" height="16" viewBox="0 0 16 16" fill="none" xmlns="http://www.w3.org/2000/svg">
<path fill-rule="evenodd" clip-rule="evenodd" d="M10 1H13C13.5523 1 14 1.44772 14 2V4H10V1ZM2.25 4C2.11193 4 2 4.11193 2 4.25V9H0.883112C0.494465 9 0.254408 9.42399 0.454365 9.75725L1.52611 11.5435C1.73307 11.8884 2.00331 12.1822 2.31699 12.4137C1.92147 12.4675 1.48325 12.5 1 12.5C0.723858 12.5 0.5 12.7239 0.5 13C0.5 13.2761 0.723858 13.5 1 13.5C3.06663 13.5 4.41432 12.9566 5.16129 12.5834C5.71123 12.9561 6.66626 13.5 8 13.5C9.32037 13.5 10.2696 12.967 10.822 12.5947L10.8264 12.597C11.0218 12.7017 11.3069 12.837 11.6818 12.9709C12.4324 13.2389 13.5392 13.5 15 13.5C15.2761 13.5 15.5 13.2761 15.5 13C15.5 12.7239 15.2761 12.5 15 12.5C14.6743 12.5 14.3691 12.4859 14.0844 12.4611C14.5548 12.1333 14.9318 11.6705 15.1543 11.1142L15.7257 9.6857C15.8571 9.35726 15.6152 9 15.2615 9H4V4.25C4 4.11193 3.88807 4 3.75 4H2.25ZM4.96389 13.5593C5.13161 13.4694 5.33579 13.4825 5.49062 13.5931C5.94558 13.9181 6.76775 14.5 8 14.5C9.23225 14.5 10.0544 13.9181 10.5094 13.5931C10.6826 13.4694 10.915 13.469 11.0886 13.5917L11.0946 13.5958C11.1013 13.6002 11.1306 13.619 11.1306 13.619C11.1653 13.6406 11.2213 13.6741 11.2986 13.7155C11.4532 13.7983 11.6931 13.913 12.0182 14.0291C12.6676 14.2611 13.6608 14.5 15 14.5C15.2761 14.5 15.5 14.7239 15.5 15C15.5 15.2761 15.2761 15.5 15 15.5C13.5392 15.5 12.4324 15.2389 11.6818 14.9709C11.3069 14.837 11.0218 14.7017 10.8264 14.597L10.822 14.5947C10.2696 14.967 9.32037 15.5 8 15.5C6.66626 15.5 5.71123 14.9561 5.16129 14.5834C4.41432 14.9566 3.06663 15.5 1 15.5C0.723858 15.5 0.5 15.2761 0.5 15C0.5 14.7239 0.723858 14.5 1 14.5C3.12866 14.5 4.38356 13.8702 4.96389 13.5593ZM14 5H10V8H13C13.5523 8 14 7.55228 14 7V5ZM5 2C5 1.44772 5.44772 1 6 1H9V4H5V2ZM9 5H5V7C5 7.55228 5.44772 8 6 8H9V5Z" fill="#000000"/>
</svg>

<svg xmlns="http://www.w3.org/2000/svg" viewBox="0 0 16 16">
  <path d="M10 1h3a1 1 0 0 1 1 1v2h-4zM2.25 4a.25.25 0 0 0-.25.25V9H.883a.5.5 0 0 0-.429.757l1.072 1.787c.207.344.477.638.791.87A10 10 0 0 1 1 12.5a.5.5 0 0 0 0 1c2.067 0 3.414-.543 4.161-.917.55.373 1.505.917 2.839.917 1.32 0 2.27-.533 2.822-.905l.004.002c.196.105.48.24.856.374.75.268 1.857.529 3.318.529a.5.5 0 0 0 0-1q-.488 0-.916-.039c.47-.328.848-.79 1.07-1.347l.572-1.428A.5.5 0 0 0 15.26 9H4V4.25A.25.25 0 0 0 3.75 4zm2.714 9.56a.5.5 0 0 1 .527.033c.455.325 1.277.907 2.509.907s2.054-.582 2.51-.907a.5.5 0 0 1 .579-.001l.006.004.036.023q.051.034.168.097c.154.082.394.197.72.313.649.232 1.642.471 2.981.471a.5.5 0 0 1 0 1c-1.46 0-2.568-.261-3.318-.53a6 6 0 0 1-.856-.373l-.004-.002c-.552.372-1.502.905-2.822.905-1.334 0-2.289-.544-2.839-.917-.747.374-2.094.917-4.161.917a.5.5 0 0 1 0-1c2.129 0 3.384-.63 3.964-.94M14 5h-4v3h3a1 1 0 0 0 1-1zM5 2a1 1 0 0 1 1-1h3v3H5zm4 3H5v2a1 1 0 0 0 1 1h3z"/>
</svg>
